Arcticons/scalable/apps/transistor.svg

<svg viewBox="0 0 48 48" xmlns="http://www.w3.org/2000/svg">
 <defs>
  <style>.a{fill:none;stroke:#fff;stroke-linecap:round;stroke-linejoin:round;}</style>
 </defs>
 <path class="a" d="m8.3 18.47h13v4.64h-13zm-2.87 8.88a1.85 1.85 0 0 1 1.85-1.86h33.44a1.85 1.85 0 0 1 1.85 1.86m-0.82-20.81a2 2 0 1 0-2 2 2 2 0 0 0 2-2zm-2 9.06v-7m-25.35 4.83h-6.1v2.15h-1a1.87 1.87 0 0 0-1.87 1.86v24.2a1.85 1.85 0 0 0 1.85 1.86h33.43a1.86 1.86 0 0 0 1.86-1.86v-24.14a1.86 1.86 0 0 0-1.86-1.86h-19.41v-2.21h-4.64v2.21h-2.26z"/>
</svg>

<svg xmlns="http://www.w3.org/2000/svg" viewBox="0 0 48 48"><defs><style>.a{fill:none;stroke:#fff;stroke-linecap:round;stroke-linejoin:round;}</style></defs><path class="a" d="M8.3,18.47h13v4.64H8.3ZM5.43,27.35a1.85,1.85,0,0,1,1.85-1.86H40.72a1.85,1.85,0,0,1,1.85,1.86M41.75,6.54a2,2,0,1,0-2,2A2,2,0,0,0,41.75,6.54Zm-2,9.06v-7M14.4,13.43H8.3v2.15h-1a1.87,1.87,0,0,0-1.87,1.86V41.64A1.85,1.85,0,0,0,7.28,43.5H40.71a1.86,1.86,0,0,0,1.86-1.86V17.5a1.86,1.86,0,0,0-1.86-1.86H21.3V13.43H16.66v2.21H14.4Z"/></svg>
